svgs/regular/book-copy.svg

<svg xmlns="http://www.w3.org/2000/svg" viewBox="0 0 576 512"><!--! Font Awesome Pro 6.6.0 by @fontawesome - https://fontawesome.com License - https://fontawesome.com/license (Commercial License) Copyright 2024 Fonticons, Inc. --><path d="M192 88c0-48.6 39.4-88 88-88L528 0c26.5 0 48 21.5 48 48l0 112 0 96c0 20.9-13.4 38.7-32 45.3l0 66.7 8 0c13.3 0 24 10.7 24 24s-10.7 24-24 24l-32 0-248 0c-44.2 0-80-35.8-80-80l0-248zM528 48L280 48c-22.1 0-40 17.9-40 40l0 174.7c9.8-4.3 20.6-6.7 32-6.7l248 0 8 0 0-96 0-112zM272 304c-17.7 0-32 14.3-32 32s14.3 32 32 32l224 0 0-64-224 0zM160 96l0 48-72 0c-22.1 0-40 17.9-40 40l0 174.7c9.8-4.3 20.6-6.7 32-6.7l81.1 0c2.5 17.7 9.2 34 18.9 48L80 400c-17.7 0-32 14.3-32 32s14.3 32 32 32l224 0 0-16 48 0 0 16 8 0c13.3 0 24 10.7 24 24s-10.7 24-24 24l-32 0L80 512c-44.2 0-80-35.8-80-80L0 184c0-48.6 39.4-88 88-88l72 0z"/></svg>

<svg xmlns="http://www.w3.org/2000/svg" viewBox="0 0 576 512"><!--! Font Awesome Pro 6.5.2 by @fontawesome - https://fontawesome.com License - https://fontawesome.com/license (Commercial License) Copyright 2024 Fonticons, Inc. --><path d="M192 88c0-48.6 39.4-88 88-88H528c26.5 0 48 21.5 48 48V160v96c0 20.9-13.4 38.7-32 45.3V368h8c13.3 0 24 10.7 24 24s-10.7 24-24 24H520 272c-44.2 0-80-35.8-80-80V88zM528 48H280c-22.1 0-40 17.9-40 40V262.7c9.8-4.3 20.6-6.7 32-6.7H520h8V160 48zM272 304c-17.7 0-32 14.3-32 32s14.3 32 32 32H496V304H272zM160 96v48H88c-22.1 0-40 17.9-40 40V358.7c9.8-4.3 20.6-6.7 32-6.7h81.1c2.5 17.7 9.2 34 18.9 48H80c-17.7 0-32 14.3-32 32s14.3 32 32 32H304V448h48v16h8c13.3 0 24 10.7 24 24s-10.7 24-24 24H328 80c-44.2 0-80-35.8-80-80V184c0-48.6 39.4-88 88-88h72z"/></svg>
